src/assets/duotone/Litecoin.svg

<svg width="24" height="24" viewBox="0 0 24 24"  xmlns="http://www.w3.org/2000/svg">
<path opacity="0.4" d="M12 22C17.5228 22 22 17.5228 22 12C22 6.47715 17.5228 2 12 2C6.47715 2 2 6.47715 2 12C2 17.5228 6.47715 22 12 22Z" />
<path d="M12.7799 6.35938C13.4399 6.35938 13.9199 6.97937 13.7499 7.61937L11.9599 14.2994H14.9899C15.6099 14.2994 16.0899 14.8594 15.9699 15.4794L15.8199 16.3194C15.7299 16.7994 15.3199 17.1394 14.8399 17.1394H9.29989C8.63989 17.1394 8.15989 16.4994 8.33989 15.8694L10.9499 6.72937C11.0099 6.51937 11.2099 6.36937 11.4299 6.36937H12.7799V6.35938Z" />
<path d="M7.32014 13.2708C6.97014 13.2708 6.66013 13.0208 6.59013 12.6708C6.51013 12.2608 6.77012 11.8708 7.18012 11.7908L14.8801 10.2508C15.2801 10.1708 15.6801 10.4308 15.7601 10.8408C15.8401 11.2508 15.5801 11.6408 15.1701 11.7208L7.47013 13.2608C7.42013 13.2708 7.37014 13.2708 7.32014 13.2708Z" />
</svg>

<?xml version="1.0" encoding="UTF-8"?>
<svg width="24" height="24" viewBox="0 0 24 24" xmlns="http://www.w3.org/2000/svg">
 <path d="m12 22c5.5228 0 10-4.4772 10-10 0-5.5228-4.4772-10-10-10-5.5228 0-10 4.4772-10 10 0 5.5228 4.4772 10 10 10z" opacity=".4"/>
 <path d="m12.78 6.3594c0.66 0 1.14 0.61999 0.97 1.26l-1.79 6.68h3.03c0.62 0 1.1 0.56 0.98 1.18l-0.15 0.84c-0.09 0.48-0.5 0.82-0.98 0.82h-5.54c-0.66 0-1.14-0.64-0.96-1.27l2.61-9.14c0.06-0.21 0.26-0.36 0.48-0.36h1.35v-0.00999z"/>
 <path d="m7.3201 13.271c-0.35 0-0.66001-0.25-0.73001-0.6-0.08-0.41 0.17999-0.8 0.58999-0.88l7.7-1.54c0.4-0.08 0.8 0.18 0.88 0.59s-0.18 0.8-0.59 0.88l-7.7 1.54c-0.05 0.01-0.09999 0.01-0.14999 0.01z"/>
</svg>
